X:1
T:Title
%%score { ( 1 3 5 ) | ( 2 4 6 ) }
L:1/8
M:4/4
K:F
V:1 treble nm="Grand Piano"
V:3 treble 
V:5 treble 
V:2 bass 
V:4 bass 
V:6 bass 
V:1
 z4 z2[Q:1/4=100] FG | A2 A>A A<A GA | B2 A2 [EG]2 [EG][FA] |[M:3/4] [GB]2 [EGB]>[EGB] [EGB][EGB] | %4
[M:1/4] [CFA][B,GB] |[M:4/4] [Fc]2 [GB]2 A2 FG | A2 A>A A<A [EG][FA] | %7
[M:9/8] [FB]2 [Fc]- [Fc] [Fd]2- [Fd][Fd]>[Fd] |[M:4/4] [Fc]2 [CFA]>[CGB] [CAc][CFA][CF][DFB] | %9
[M:7/8] [CFA]2 [B,EG]2 [A,F]3 |[M:1/4] [A,CF][A,CF] |[M:4/4] [Fd]2 [Fd]>[Fd] [FB][FB][FB][Fd] | %12
[M:3/4] [Fc]2 [Ac]2 A2 |[M:1/4] AG |[M:4/4] F2 F>F FFEF | %15
[M:39/32] z/4 z/4 z/4 z/4 z/4 z/4 z/4 z/4 z/4 z/4 z/4 z/4 z/4 z/4 z/4 z/4 z/4 z/4 z/4 z/4 z/4 z/4 z/4 z/4 z/4 z/4 z/ [Ec]/4-[Ec]/4-[Ec]/4-[Ec]/4-[Ec]/4-[Ec]/4-[Ec]/-<[Ec]/ z/4 | %16
[M:3/4] z2 (3:2:2A2 A A<A |[M:1/4] (3:2:2[EG]3/2[FA]3/2 |[M:9/8] z2 c- c-c/4 z/4 z/ z z d2 | %19
[M:4/4] (9:8:7[Fc]2 [CFA]2 [CGB]/ [CAc][CFA][CF]3/2[DFB] |[M:7/8] [CFA]2- [CFA]/4 z/4 z/ z z z2 |] %21
V:2
 z4 z2 [F,A,C][F,B,C] | [F,CF]2 [F,CF]>[F,CF] [F,CF]<[F,CF] [E,C][F,CF] | %2
 [G,CE]2 [F,CF]2 [C,C]2 [C,C][C,C] |[M:3/4] [C,C]2 C,>D, C,C, |[M:1/4] C,C, | %5
[M:4/4] [C,A,]2 [C,C]2 [F,CF]2 [F,A,C][F,B,C] | [F,CF]2 [F,CF]>[F,CF] [F,CF]<[F,CF] [C,C][F,C] | %7
[M:9/8] [D,B,]2 [C,A,]- [C,A,] [B,,B,]2- [B,,B,][B,,B,]>[D,B,] |[M:4/4] [F,A,]2 F,>F, F,F,A,,B,, | %9
[M:7/8] C,2 C,2 F,3 |[M:1/4] F,F, |[M:4/4] [B,,B,]2 [B,,B,]>[B,,B,] [B,,G,][C,G,][D,F,][E,B,] | %12
[M:3/4] [F,A,]2 [F,C]2 [F,CF]2 |[M:1/4] [F,CF][F,B,C] | %14
[M:4/4] [F,A,C]2 [F,A,C]>[F,A,C] [F,A,C][A,C][G,B,C][F,A,C] | %15
[M:39/32] z/4 z/4 z/4 z/4 z/4 z/4 z/4 z/4 z/4 z/4 z/4 z/4 z/4 z/4 z/4 z/4 z/4 z/4 z/4 z/4 z/4 z/4 z/4 z/4 z/4 z/4 z/ G,/4-G,/4-G,/4-G,/4-G,/4-G,/4-G,/-<G,/ z/4 | %16
[M:3/4] z2 (3:2:2[F,CF]2 [F,CF] [F,CF]<[F,CF] |[M:1/4] (3:2:2[C,C]3/2[F,C]3/2 | %18
[M:9/8] [D,B,]2- [D,B,]/4 z/4 z/ z3 z B,2 |[M:4/4] (9:8:7[F,A,]2 F,2 F,/ F,F,A,,3/2B,, | %20
[M:7/8] C,2 z2 F,3 |] %21
V:3
 x8 | x8 | x8 |[M:3/4] x6 |[M:1/4] x2 |[M:4/4] x8 | x8 |[M:9/8] x9 |[M:4/4] x8 |[M:7/8] x7 | %10
[M:1/4] x2 |[M:4/4] x8 |[M:3/4] x6 |[M:1/4] x2 |[M:4/4] x8 | %15
[M:39/32] [FA]/4-[FA]/4-[FA]/4-[FA]/4-[FA]/-<[FA]/[EG]/4-[EG]/4-[EG]/4-[EG]/4-[EG]/-<[EG]/[EG]/4-[EG]/4-[EG]/4-[EG]/4-[EG]/4-[EG]/4-[EG]/4-[EG]/4-[EG]/-<[EG]/ z/4 z/4 z/4 z/4 z/4 z/4 z/ [GB]3/4 | %16
[M:3/4] A2- A/4 z/4 z/ z z2 |[M:1/4] x2 |[M:9/8] B2- B/4 z/4 z/ z3 z3 |[M:4/4] x8 | %20
[M:7/8] z2 [B,EG]2- [B,EG]/4 z/4 z/ z2 |] %21
V:4
 x8 | x8 | x8 |[M:3/4] x6 |[M:1/4] x2 |[M:4/4] x8 | x8 |[M:9/8] x9 |[M:4/4] x8 |[M:7/8] x7 | %10
[M:1/4] x2 |[M:4/4] x8 |[M:3/4] x6 |[M:1/4] x2 |[M:4/4] x8 | %15
[M:39/32] [C,C]/4-[C,C]/4-[C,C]/4-[C,C]/4-[C,C]/-<[C,C]/[C,C]/4-[C,C]/4-[C,C]/4-[C,C]/4-[C,C]/-<[C,C]/[C,C]/4-[C,C]/4-[C,C]/4-[C,C]/4-[C,C]/4-[C,C]/4-[C,C]/4-[C,C]/4-[C,C]/-<[C,C]/C,/4-C,/4-C,/4-C,/4-C,/-<C,/[C,C]3/4 | %16
[M:3/4] [F,CF]2- [F,CF]/4 z/4 z/ z z2 |[M:1/4] x2 |[M:9/8] z2 [C,A,]- [C,A,]-[C,A,]/4 z/4 z/ z z3 | %19
[M:4/4] x8 |[M:7/8] z2 C,2- C,/4 z/4 z/ z2 |] %21
V:5
 x8 | x8 | x8 |[M:3/4] x6 |[M:1/4] x2 |[M:4/4] x8 | x8 |[M:9/8] x9 |[M:4/4] x8 |[M:7/8] x7 | %10
[M:1/4] x2 |[M:4/4] x8 |[M:3/4] x6 |[M:1/4] x2 |[M:4/4] x8 |[M:39/32] x39/4 |[M:3/4] x6 | %17
[M:1/4] x2 |[M:9/8] F2 F- F [Fd]2- [Fd]F3/2-[FG-d-]/4[Gd]/4 |[M:4/4] x8 |[M:7/8] z z z2 [A,F]3 |] %21
V:6
 x8 | x8 | x8 |[M:3/4] x6 |[M:1/4] x2 |[M:4/4] x8 | x8 |[M:9/8] x9 |[M:4/4] x8 |[M:7/8] x7 | %10
[M:1/4] x2 |[M:4/4] x8 |[M:3/4] x6 |[M:1/4] x2 |[M:4/4] x8 |[M:39/32] x39/4 |[M:3/4] x6 | %17
[M:1/4] x2 |[M:9/8] z3 z [B,,B,]2- [B,,B,]B,,3/2-[B,,D,-B,-]/4[D,B,]/4 |[M:4/4] x8 |[M:7/8] x7 |] %21

